src/components/ae-icon/icons/flip.svg

<?xml version="1.0" encoding="UTF-8"?>
<svg width="24px" height="24px" viewBox="0 0 24 24" version="1.1" xmlns="http://www.w3.org/2000/svg" xmlns:xlink="http://www.w3.org/1999/xlink">
    <!-- Generator: Sketch 52.1 (67048) - http://www.bohemiancoding.com/sketch -->
    <title>atoms/icons/ui/flip</title>
    <desc>Created with Sketch.</desc>
    <defs>
        <path d="M5.41421356,18 L17,18 C18.6568542,18 20,16.6568542 20,15 L20,13 C20,12.4477153 20.4477153,12 21,12 C21.5522847,12 22,12.4477153 22,13 L22,15 C22,17.7614237 19.7614237,20 17,20 L5.41421356,20 L7.70710678,22.2928932 C8.09763107,22.6834175 8.09763107,23.3165825 7.70710678,23.7071068 C7.31658249,24.0976311 6.68341751,24.0976311 6.29289322,23.7071068 L2.29289322,19.7071068 C1.90236893,19.3165825 1.90236893,18.6834175 2.29289322,18.2928932 L6.29289322,14.2928932 C6.68341751,13.9023689 7.31658249,13.9023689 7.70710678,14.2928932 C8.09763107,14.6834175 8.09763107,15.3165825 7.70710678,15.7071068 L5.41421356,18 Z M18.5857864,6 L7,6 C5.34314575,6 4,7.34314575 4,9 L4,11 C4,11.5522847 3.55228475,12 3,12 C2.44771525,12 2,11.5522847 2,11 L2,9 C2,6.23857625 4.23857625,4 7,4 L18.5857864,4 L16.2928932,1.70710678 C15.9023689,1.31658249 15.9023689,0.683417511 16.2928932,0.292893219 C16.6834175,-0.0976310729 17.3165825,-0.0976310729 17.7071068,0.292893219 L21.7071068,4.29289322 C22.0976311,4.68341751 22.0976311,5.31658249 21.7071068,5.70710678 L17.7071068,9.70710678 C17.3165825,10.0976311 16.6834175,10.0976311 16.2928932,9.70710678 C15.9023689,9.31658249 15.9023689,8.68341751 16.2928932,8.29289322 L18.5857864,6 Z" id="path-1"></path>
    </defs>
    <g id="atoms/icons/ui/flip" stroke="none" stroke-width="1" fill="none" fill-rule="evenodd">
        <mask id="mask-2" fill="white">
            <use xlink:href="#path-1"></use>
        </mask>
        <use id="Combined-Shape" fill="#000000" fill-rule="nonzero" xlink:href="#path-1"></use>
    </g>
</svg>

<svg width="24" height="24" xmlns="http://www.w3.org/2000/svg" xmlns:xlink="http://www.w3.org/1999/xlink"><defs><path d="M5.414 18H17a3 3 0 0 0 3-3v-2a1 1 0 0 1 2 0v2a5 5 0 0 1-5 5H5.414l2.293 2.293a1 1 0 0 1-1.414 1.414l-4-4a1 1 0 0 1 0-1.414l4-4a1 1 0 1 1 1.414 1.414L5.414 18zM18.586 6H7a3 3 0 0 0-3 3v2a1 1 0 0 1-2 0V9a5 5 0 0 1 5-5h11.586l-2.293-2.293A1 1 0 1 1 17.707.293l4 4a1 1 0 0 1 0 1.414l-4 4a1 1 0 1 1-1.414-1.414L18.586 6z" id="a"/></defs><use fill="#000" fill-rule="nonzero" xlink:href="#a"/></svg>
